package/converter/svg/solid/outlet.svg

<svg xmlns="http://www.w3.org/2000/svg" viewBox="0 0 448 512"><!-- Font Awesome Pro 6.0.0-alpha2 by @fontawesome - https://fontawesome.com License - https://fontawesome.com/license (Commercial License) --><path d="M224 288C210.781 288 200 298.781 200 312V336H248V312C248 298.781 237.219 288 224 288ZM160 192C151.164 192 144 199.164 144 208V256C144 264.836 151.164 272 160 272C168.838 272 176 264.836 176 256V208C176 199.164 168.838 192 160 192ZM288 192C279.164 192 272 199.164 272 208V256C272 264.836 279.164 272 288 272C296.838 272 304 264.836 304 256V208C304 199.164 296.838 192 288 192ZM384 32H64C28.654 32 0 60.654 0 96V416C0 451.346 28.654 480 64 480H384C419.348 480 448 451.346 448 416V96C448 60.654 419.348 32 384 32ZM332.543 378.596C328.896 382.096 324 383.996 318.896 383.996H129.105C124 383.996 119.105 382.096 115.459 378.596C83.793 347.396 64 304.098 64 256C64 207.9 83.793 164.602 115.459 133.404C119.105 129.904 124 127.904 129.105 128.004H318.896C324 127.904 328.896 129.904 332.543 133.404C364.209 164.602 384 207.9 384 256C384 304.098 364.209 347.396 332.543 378.596Z"/></svg>

<svg xmlns="http://www.w3.org/2000/svg" viewBox="0 0 448 512"><!--! Font Awesome Pro 6.6.0 by @fontawesome - https://fontawesome.com License - https://fontawesome.com/license (Commercial License) Copyright 2024 Fonticons, Inc. --><path d="M64 32C28.7 32 0 60.7 0 96L0 416c0 35.3 28.7 64 64 64l320 0c35.3 0 64-28.7 64-64l0-320c0-35.3-28.7-64-64-64L64 32zm0 224c0-61.1 30.8-99.1 49.7-116.6c8.8-8.2 20.7-11.4 32.6-11.4l155.3 0c12 0 23.9 3.3 32.6 11.4C353.2 156.9 384 194.9 384 256s-30.8 99-49.7 116.6c-8.8 8.2-20.7 11.4-32.6 11.4l-155.3 0c-12 0-23.9-3.3-32.6-11.4C94.8 355 64 317.1 64 256zm96-64c-8.8 0-16 7.2-16 16l0 48c0 8.8 7.2 16 16 16s16-7.2 16-16l0-48c0-8.8-7.2-16-16-16zm128 0c-8.8 0-16 7.2-16 16l0 48c0 8.8 7.2 16 16 16s16-7.2 16-16l0-48c0-8.8-7.2-16-16-16zm-64 96c-13.3 0-24 10.7-24 24l0 16c0 4.4 3.6 8 8 8l32 0c4.4 0 8-3.6 8-8l0-16c0-13.3-10.7-24-24-24z"/></svg>
